X:1025
T:Rise lazy Lubber.
M:C
L:1/8
Q:1/4=120
I: :: ::
Z:Jack Campin * www.campin.me.uk * 2009
K:A Minor
c|A2 A>c G2 G>A|c>de>c A2A>c|d>Bc>A G2 G>A|c>de>c A2A:|
a|g>eg>d e>dc>a|g>ed>c A2A>a|g>eg>d e>dc>e|d>eg>a A2A:|

